lib/preview/nrk-logo-preview-nrk-p3-on-light.svg

<svg width="59" height="14" viewBox="0 0 59 14" fill="none" xmlns="http://www.w3.org/2000/svg">
<path d="M46.3331 1.01056H42.6319C42.6319 1.01056 44.735 4.46312 44.7588 4.50657C44.838 4.60641 44.8823 4.72953 44.8848 4.85698C44.8873 4.98444 44.8479 5.10918 44.7726 5.21204L42.6319 8.72105H46.3337C46.3337 8.72105 48.1188 5.80211 48.3628 5.39688C48.4787 5.24165 48.5404 5.05272 48.5386 4.85905C48.5368 4.66538 48.4716 4.47764 48.353 4.32456C48.0897 3.87616 48.0891 3.87646 46.3331 1.01056Z" fill="black"/>
<path d="M42.1536 1.0106H38.8571V13.0039H42.1536V1.0106Z" fill="black"/>
<path d="M57.9265 2.99745C57.802 2.78524 56.7004 1.01056 56.7004 1.01056H48.7777L50.5083 3.91342H54.6813L52.96 6.73529L54.8789 9.95928L53.0269 13.003H56.4092C56.9529 12.1135 57.7659 10.7376 57.9358 10.4557C58.0523 10.2999 58.1144 10.1101 58.1126 9.91557C58.1108 9.72104 58.0452 9.53247 57.9259 9.37882C57.7566 9.08986 56.8508 7.65326 56.3095 6.76888C56.3095 6.76888 57.7659 4.35561 57.9358 4.0737C58.0522 3.918 58.1144 3.72842 58.1127 3.53401C58.111 3.33959 58.0456 3.1511 57.9265 2.99745Z" fill="black"/>
<path d="M50.3057 7.125C49.7842 7.97664 48.9123 9.40395 48.7489 9.68219C48.6339 9.83017 48.5707 10.0118 48.569 10.1992C48.5672 10.3866 48.6271 10.5694 48.7393 10.7195C48.903 10.991 49.7817 12.4296 50.3057 13.2874C50.8295 12.4304 51.7085 10.9918 51.8719 10.7195C51.9841 10.5694 52.0439 10.3866 52.0422 10.1993C52.0405 10.0119 51.9774 9.83025 51.8626 9.68219C51.6992 9.40395 50.8269 7.97664 50.3057 7.125Z" fill="black"/>
<path d="M0 13.0056V1.00671H3.93719V13.0056H0ZM9.29381 2.91639L11.5581 13.0056H7.24917L4.54549 1.00671H6.96218C7.51635 0.999513 8.05406 1.19486 8.4745 1.556C8.89562 1.902 9.18495 2.38231 9.29381 2.91639ZM12.1495 13.0056V1.00671H16.0867V13.0056H12.1495ZM19.0605 5.56972C18.6362 5.57385 18.2188 5.46285 17.8525 5.24858C17.4912 5.03974 17.1911 4.73957 16.9823 4.37821C16.7678 4.01195 16.6568 3.59438 16.661 3.16993C16.6561 2.74808 16.7672 2.33299 16.9823 1.97004C17.1933 1.61261 17.4931 1.31571 17.8525 1.10813C18.2189 0.894118 18.6362 0.78313 19.0605 0.786999C19.4822 0.782457 19.8971 0.893544 20.2602 1.10813C20.616 1.31753 20.9127 1.61418 21.122 1.97004C21.3368 2.3331 21.4479 2.74811 21.4433 3.16993C21.4473 3.59434 21.3363 4.01184 21.122 4.37821C20.9149 4.73799 20.6179 5.0379 20.2602 5.24858C19.8971 5.46359 19.4819 5.57471 19.0599 5.56972H19.0605ZM22.0516 13.0056V1.00671H25.9892V13.0056H22.0516ZM30.9737 7.56385C30.9848 7.57549 31.0693 7.7135 31.2272 7.97789C31.3851 8.24228 31.5906 8.5803 31.8439 8.9919C32.0974 9.40332 32.3649 9.83987 32.6463 10.3016C32.9278 10.7634 33.1926 11.2 33.4408 11.6114C33.6881 12.0228 33.9697 12.4875 34.2857 13.0056H29.9598C29.6893 12.5662 29.4441 12.1691 29.2245 11.8142C29.0048 11.4593 28.7713 11.0762 28.5238 10.665C28.2758 10.2541 28.0306 9.85415 27.7882 9.46508C27.5458 9.07601 27.3375 8.73523 27.1633 8.44267C26.9883 8.14993 26.8671 7.95274 26.7997 7.85115C26.6325 7.59906 26.5336 7.30791 26.5127 7.00616C26.5294 6.71655 26.6226 6.43659 26.7828 6.19473C26.8504 6.08206 26.9743 5.88204 27.1545 5.59475C27.3348 5.30745 27.546 4.96667 27.7882 4.57234C28.0304 4.17801 28.2756 3.77522 28.5238 3.36399C28.772 2.95276 29.0056 2.56685 29.2245 2.20632C29.4445 1.84617 29.6897 1.4462 29.9598 1.00643H34.2857L30.9396 6.46511C30.8361 6.62718 30.7777 6.81396 30.7706 7.00616C30.7818 7.20794 30.8522 7.40193 30.9731 7.56385H30.9737Z" fill="black"/>
</svg>

<svg xmlns="http://www.w3.org/2000/svg" viewBox="0 0 59 14"><path fill="#000" d="M46.333 1.01h-3.701s2.103 3.453 2.127 3.497a.582.582 0 0 1 .014.705l-2.141 3.51h3.702s1.785-2.92 2.029-3.325a.885.885 0 0 0-.01-1.072c-.263-.449-.264-.449-2.02-3.314ZM42.154 1.01h-3.297v11.994h3.297V1.01ZM57.926 2.997c-.124-.212-1.226-1.986-1.226-1.986h-7.922l1.73 2.902h4.173L52.96 6.735l1.919 3.224-1.852 3.044h3.382c.544-.89 1.357-2.265 1.527-2.547a.888.888 0 0 0-.01-1.077c-.17-.29-1.075-1.726-1.617-2.61l1.627-2.695a.888.888 0 0 0-.01-1.077Z"/><path fill="#000" d="M50.306 7.125a376.74 376.74 0 0 0-1.557 2.557.855.855 0 0 0-.01 1.037c.164.272 1.043 1.71 1.567 2.568a906.39 906.39 0 0 0 1.566-2.568.856.856 0 0 0-.01-1.037 390.735 390.735 0 0 0-1.556-2.557ZM0 13.006v-12h3.937v12H0Zm9.294-10.09 2.264 10.09H7.25l-2.704-12h2.417a2.276 2.276 0 0 1 1.513.55c.42.346.71.826.819 1.36Zm2.855 10.09v-12h3.938v12h-3.938Zm6.912-7.436a2.382 2.382 0 0 1-2.4-2.4 2.301 2.301 0 0 1 .321-1.2 2.41 2.41 0 0 1 3.278-.862c.356.21.653.506.862.862.215.363.326.778.321 1.2a2.35 2.35 0 0 1-.321 1.208 2.4 2.4 0 0 1-.862.87 2.302 2.302 0 0 1-1.2.322Zm2.99 7.436v-12h3.938v12h-3.937Zm8.923-5.442c.01.011.095.15.253.414s.364.602.617 1.014a315.274 315.274 0 0 1 1.597 2.62c.247.41.529.876.845 1.394H29.96c-.27-.44-.516-.837-.736-1.192-.22-.355-.453-.738-.7-1.149-.248-.41-.493-.81-.736-1.2-.242-.389-.45-.73-.625-1.022-.175-.293-.296-.49-.363-.592a1.747 1.747 0 0 1-.287-.845c.016-.29.11-.57.27-.811.067-.113.191-.313.371-.6a182.106 182.106 0 0 0 1.37-2.23l.7-1.159.736-1.2h4.326l-3.346 5.46a1.08 1.08 0 0 0-.17.54c.012.202.082.396.203.558Z"/></svg>
